resources/dark/envelope.svg

<svg fill="none" height="16" viewBox="0 0 16 16" width="16" xmlns="http://www.w3.org/2000/svg"><path d="m14.7348 6.46719c.1066-.08477.2652-.00547.2652.12851v5.5918c0 .7246-.5879 1.3125-1.3125 1.3125h-11.375c-.72461 0-1.3125-.5879-1.3125-1.3125v-5.58906c0-.13672.15586-.21328.26523-.12852.6125.47578 1.42461 1.08008 4.21368 3.10625.57695.4211 1.55039 1.30703 2.52109 1.30153.97617.0082 1.96875-.89684 2.5238-1.30153 2.7891-2.02617 3.5985-2.6332 4.211-3.10898zm-6.7348 3.53281c.63438.0109 1.54766-.79844 2.007-1.13203 3.6285-2.6332 3.9047-2.86289 4.7414-3.51914.1586-.12305.2516-.31445.2516-.5168v-.51953c0-.72461-.5879-1.3125-1.3125-1.3125h-11.375c-.72461 0-1.3125.58789-1.3125 1.3125v.51953c0 .20235.09297.39102.25156.5168.83672.65351 1.11289.88594 4.74141 3.51914.45937.33359 1.37265 1.14293 2.00703 1.13203z" fill="#4f5258"/></svg>

<svg width="16" height="16" viewBox="0 0 16 16" fill="none" xmlns="http://www.w3.org/2000/svg">
<path d="M14.7348 6.46719C14.8414 6.38242 15 6.46172 15 6.5957V12.1875C15 12.9121 14.4121 13.5 13.6875 13.5H2.3125C1.58789 13.5 1 12.9121 1 12.1875V6.59844C1 6.46172 1.15586 6.38516 1.26523 6.46992C1.87773 6.9457 2.68984 7.55 5.47891 9.57617C6.05586 9.99727 7.0293 10.8832 8 10.8777C8.97617 10.8859 9.96875 9.98086 10.5238 9.57617C13.3129 7.55 14.1223 6.94297 14.7348 6.46719ZM8 10C8.63438 10.0109 9.54766 9.20156 10.007 8.86797C13.6355 6.23477 13.9117 6.00508 14.7484 5.34883C14.907 5.22578 15 5.03438 15 4.83203V4.3125C15 3.58789 14.4121 3 13.6875 3H2.3125C1.58789 3 1 3.58789 1 4.3125V4.83203C1 5.03438 1.09297 5.22305 1.25156 5.34883C2.08828 6.00234 2.36445 6.23477 5.99297 8.86797C6.45234 9.20156 7.36562 10.0109 8 10Z" fill="#4F5258"/>
</svg>
